X: 04057
T: MARY IS A ROSE
C: Bob McQuillen 18 Nov 78
B: Bob's Note Book 04 #57
%R: waltz
Z: 2020 John Chambers <jc:trillian.mit.edu>
M: 3/4
L: 1/4
K: G
D \
| G>AG | BdB | G>AG | EDD | G>AG | GBd | e>de | d2B/d/ |
| eg>e | dBG | AB>G | EDD | G2B/d/ | edB | G/B/A>G | G2 ||
|| d \
| g>fg | edd | e>fg | dBG | c>de | dBG | c>de | A2d |
| g>fg | edd | e>fg | dBG | c>de | dBG | G/B/A>G | G2 |]
%%begintext align
%% Mare Desrosiers of Station
%% WSLE in Peterborough, N.H.
%% loves folk music, and this
%% tune is for her.
%%endtext

%%sep 1 1 500

%%sep 1 1 500

